public/assets/ui/arrow-down-circle.svg

<svg version="1.1" id="_x32_" xmlns="http://www.w3.org/2000/svg" viewBox="0 0 512 512" xml:space="preserve">
<path d="M256,0C114.613,0,0,114.613,0,256s114.613,256,256,256s256-114.613,256-256S397.387,0,256,0z M375.451,262.298L259.395,384.29c-0.887,0.927-2.113,1.452-3.395,1.452c-1.282,0-2.508-0.524-3.395-1.452L136.54,262.298c-11.226-11.791-10.766-30.436,1.032-41.654c11.79-11.218,30.452-10.75,41.653,1.032l47.306,49.726V153.605c0-16.282,13.186-29.468,29.468-29.468c16.282,0,29.46,13.186,29.46,29.468v117.798l47.314-49.726c11.193-11.782,29.863-12.25,41.645-1.032C386.217,231.862,386.686,250.508,375.451,262.298z" fill="#b56cff"/>
</svg>

<svg width="512" height="512" viewBox="0 0 512 512" fill="none" xmlns="http://www.w3.org/2000/svg">
<g clip-path="url(#clip0_1_2)">
<path d="M256 0C114.613 0 0 114.613 0 256C0 397.387 114.613 512 256 512C397.387 512 512 397.387 512 256C512 114.613 397.387 0 256 0ZM375.451 262.298L259.395 384.29C258.508 385.217 257.282 385.742 256 385.742C254.718 385.742 253.492 385.218 252.605 384.29L136.54 262.298C125.314 250.507 125.774 231.862 137.572 220.644C149.362 209.426 168.024 209.894 179.225 221.676L226.531 271.402V153.605C226.531 137.323 239.717 124.137 255.999 124.137C272.281 124.137 285.459 137.323 285.459 153.605V271.403L332.773 221.677C343.966 209.895 362.636 209.427 374.418 220.645C386.217 231.862 386.686 250.508 375.451 262.298Z" fill="#B56CFF"/>
<path d="M375.451 262.298L259.395 384.29C258.508 385.217 257.282 385.742 256 385.742C254.718 385.742 253.492 385.218 252.605 384.29L136.54 262.298C125.314 250.507 125.774 231.862 137.572 220.644C149.362 209.426 168.024 209.894 179.225 221.676L226.531 271.402V153.605C226.531 137.323 239.717 124.137 255.999 124.137C272.281 124.137 285.459 137.323 285.459 153.605V271.403L332.773 221.677C343.966 209.895 362.636 209.427 374.418 220.645C386.217 231.862 386.686 250.508 375.451 262.298Z" fill="black"/>
</g>
<defs>
<clipPath id="clip0_1_2">
<rect width="512" height="512" fill="white"/>
</clipPath>
</defs>
</svg>
